X: 76
T: POLKA: Britches Full of Stitches (Amaj)
C: C: Trad.; S: Jackie Daly & Séamus Creagh
C: Set Leaders: Vova, Anton, Tania
Z: Anton Zille ed., Oleg Naumov arr.; gian marco at The Session
N: https://thesession.org/members/26966/sets/96723
R: Polka
M: 2/4
L: 1/8
Q: 1/4=140
K: Amaj
|:"A"A>B cA|"A"BA cA|"A"A>B cA|"D"BA "E"F2|
"A"A>B cA|"(F#m)"BA "(E)"ce|"D"A>B AF|"E"FE E2:||
|:"A (Em)"e>f ec|"(C)"BA "E"Bc|"A"e>f ec|"D"BA "E"F2|
"F#m"e>f ec|"F#m"BA "E"Bc|"D"A>B AF|1 "D"FE "E"E2:|2 "D"FE "E"EF||

